X: 1
T:June McCormack's #3
M:2/2
L:1/8
R:Reel
K:G
dB~B2 c2BA|G2 (3Bcd g2fg|aA~A2 cBAG|Ad^cd edge|
dB~B2 c2BA|G2 (3Bcd g2fg|agef g2fd|cAFA G2Bc:|
|:~d2ge dcBc|dG~G2 gfed|eaag edBd|de~e2 ~g2ge|
~d2ge dcBc|dG~G2 gabg|agef g2fd|cAFA G2Bc:||
